common/src/main/resources/icons/plugins/resharper/PsiFeaturesUnsortedOptions/BlankLines.svg

<!--
  - The MIT License (MIT)
  -
  - Copyright (c) 2015-2024 Elior "Mallowigi" Boukhobza
  -
  - Permission is hereby granted, free of charge, to any person obtaining a copy
  - of this software and associated documentation files (the "Software"), to deal
  - in the Software without restriction, including without limitation the rights
  - to use, copy, modify, merge, publish, distribute, sublicense, and/or sell
  - copies of the Software, and to permit persons to whom the Software is
  - furnished to do so, subject to the following conditions:
  -
  - The above copyright notice and this permission notice shall be included in all
  - copies or substantial portions of the Software.
  -
  - THE SOFTWARE IS PROVIDED "AS IS", WITHOUT WARRANTY OF ANY KIND, EXPRESS OR
  - IMPLIED, INCLUDING BUT NOT LIMITED TO THE WARRANTIES OF MERCHANTABILITY,
  - FITNESS FOR A PARTICULAR PURPOSE AND NONINFRINGEMENT. IN NO EVENT SHALL THE
  - AUTHORS OR COPYRIGHT HOLDERS BE LIABLE FOR ANY CLAIM, DAMAGES OR OTHER
  - LIABILITY, WHETHER IN AN ACTION OF CONTRACT, TORT OR OTHERWISE, ARISING FROM,
  - OUT OF OR IN CONNECTION WITH THE SOFTWARE OR THE USE OR OTHER DEALINGS IN THE
  - SOFTWARE.
  -->

<svg data-big="true" width='16.000000317891' height='15.99999237061' viewBox='0,0,16.000000317891,15.99999237061'
     xmlns='http://www.w3.org/2000/svg'>
  <g>
    <path fill-rule='evenodd' d='M0,0L16.000000317890994,0L16.000000317890994,15.999992370610016L0,15.999992370610016Z'
          fill='#F06292' opacity='0'/>
    <path fill-rule='evenodd'
          d='M15.000000317890994,2.0000023706100163L5.0000003178909935,2.0000023706100163L5.0000003178909935,4.0000023706100158L15.000000317890994,4.0000023706100158M12.000000317890994,5.0000023706100158L5.0000003178909935,5.0000023706100158L5.0000003178909935,7.0000023706100158L12.000000317890994,7.0000023706100158M14.000000317890994,11.999992370610016L5.0000003178909935,11.999992370610016L5.0000003178909935,13.999992370610016L14.000000317890994,13.999992370610016L14.000000317890994,11.999992370610016Z'
          fill='#F06292'/>
    <path fill-rule='evenodd'
          d='M1.0000003178909935,14.999992370610016L2.0000003178909935,14.999992370610016L2.0000003178909935,1.0000023706100163L1.0000003178909935,1.0000023706100163L1.0000003178909935,14.999992370610016Z'
          fill='#F06292'/>
  </g>
</svg>

<svg xmlns="http://www.w3.org/2000/svg" width="16" height="16" data-big="true"><g fill="#F06292" fill-rule="evenodd"><path d="M15 2H5v2h10m-3 1H5v2h7m2 5H5v2h9zM1 15h1V1H1z"/></g></svg>
